assets/img/braze_icons/gaming-pad-02.svg

<svg fill="none" height="24" viewBox="0 0 24 24" width="24" xmlns="http://www.w3.org/2000/svg"><path clip-rule="evenodd" d="m18.8385 5h-13.67704c-.52713-.00002-.98192-.00003-1.35649.03057-.39534.0323-.78856.10362-1.16694.29641-.56449.28762-1.02343.74656-1.31105 1.31105-.19279.37838-.26411.7716-.29641 1.16694-.030601.37457-.030586.82931-.03057 1.35645v5.67708c-.000016.5272-.000031.982.03057 1.3565.0323.3954.10362.7886.29641 1.167.28762.5645.74656 1.0234 1.31105 1.311.37838.1928.7716.2641 1.16694.2964.37457.0306.82934.0306 1.35648.0306h13.67705c.5272 0 .982 0 1.3565-.0306.3954-.0323.7886-.1036 1.167-.2964.5645-.2876 1.0234-.7465 1.311-1.311.1928-.3784.2641-.7716.2964-1.167.0306-.3745.0306-.8293.0306-1.3564v-5.67716c0-.52714 0-.9819-.0306-1.35647-.0323-.39534-.1036-.78856-.2964-1.16694-.2876-.56449-.7465-1.02343-1.311-1.31105-.3784-.19279-.7716-.26411-1.167-.29641-.3745-.0306-.8293-.03059-1.3565-.03057zm-9.8385 5c0-.55228-.44771-1-1-1-.55228 0-1 .44772-1 1v1h-1c-.55228 0-1 .4477-1 1s.44772 1 1 1h1v1c0 .5523.44772 1 1 1 .55229 0 1-.4477 1-1v-1h1c.5523 0 1-.4477 1-1s-.4477-1-1-1h-1zm5 3c0-.5523.4477-1 1-1h.01c.5523 0 1 .4477 1 1s-.4477 1-1 1h-.01c-.5523 0-1-.4477-1-1zm3-2c0-.5523.4477-1 1-1h.01c.5523 0 1 .4477 1 1s-.4477 1-1 1h-.01c-.5523 0-1-.4477-1-1z" fill="#801ed7" fill-rule="evenodd"/></svg>

<svg width="24" height="24" viewBox="0 0 24 24" fill="none" xmlns="http://www.w3.org/2000/svg">
<path fill-rule="evenodd" clip-rule="evenodd" d="M18.8385 5H5.16146C4.63433 4.99998 4.17954 4.99997 3.80497 5.03057C3.40963 5.06287 3.01641 5.13419 2.63803 5.32698C2.07354 5.6146 1.6146 6.07354 1.32698 6.63803C1.13419 7.01641 1.06287 7.40963 1.03057 7.80497C0.999969 8.17954 0.999984 8.63428 1 9.16142V14.8385C0.999984 15.3657 0.999969 15.8205 1.03057 16.195C1.06287 16.5904 1.13419 16.9836 1.32698 17.362C1.6146 17.9265 2.07354 18.3854 2.63803 18.673C3.01641 18.8658 3.40963 18.9371 3.80497 18.9694C4.17954 19 4.63431 19 5.16145 19H18.8385C19.3657 19 19.8205 19 20.195 18.9694C20.5904 18.9371 20.9836 18.8658 21.362 18.673C21.9265 18.3854 22.3854 17.9265 22.673 17.362C22.8658 16.9836 22.9371 16.5904 22.9694 16.195C23 15.8205 23 15.3657 23 14.8386V9.16144C23 8.6343 23 8.17954 22.9694 7.80497C22.9371 7.40963 22.8658 7.01641 22.673 6.63803C22.3854 6.07354 21.9265 5.6146 21.362 5.32698C20.9836 5.13419 20.5904 5.06287 20.195 5.03057C19.8205 4.99997 19.3657 4.99998 18.8385 5ZM9 10C9 9.44772 8.55229 9 8 9C7.44772 9 7 9.44772 7 10V11H6C5.44772 11 5 11.4477 5 12C5 12.5523 5.44772 13 6 13H7V14C7 14.5523 7.44772 15 8 15C8.55229 15 9 14.5523 9 14V13H10C10.5523 13 11 12.5523 11 12C11 11.4477 10.5523 11 10 11H9V10ZM14 13C14 12.4477 14.4477 12 15 12H15.01C15.5623 12 16.01 12.4477 16.01 13C16.01 13.5523 15.5623 14 15.01 14H15C14.4477 14 14 13.5523 14 13ZM17 11C17 10.4477 17.4477 10 18 10H18.01C18.5623 10 19.01 10.4477 19.01 11C19.01 11.5523 18.5623 12 18.01 12H18C17.4477 12 17 11.5523 17 11Z" fill="#801ED7"/>
</svg>
